humanity-icon-theme/Humanity/apps/24/preferences-desktop-accessibility.svg

<?xml version="1.0" encoding="UTF-8" standalone="no"?>
<!-- Created with Inkscape (http://www.inkscape.org/) -->
<svg
   xmlns:dc="http://purl.org/dc/elements/1.1/"
   xmlns:cc="http://creativecommons.org/ns#"
   xmlns:rdf="http://www.w3.org/1999/02/22-rdf-syntax-ns#"
   xmlns:svg="http://www.w3.org/2000/svg"
   xmlns="http://www.w3.org/2000/svg"
   xmlns:xlink="http://www.w3.org/1999/xlink"
   xmlns:sodipodi="http://sodipodi.sourceforge.net/DTD/sodipodi-0.dtd"
   xmlns:inkscape="http://www.inkscape.org/namespaces/inkscape"
   version="1.0"
   width="24"
   height="24"
   id="svg3275"
   sodipodi:version="0.32"
   inkscape:version="0.46"
   sodipodi:docname="preferences-desktop-accessibility.svg"
   inkscape:output_extension="org.inkscape.output.svg.inkscape">
  <metadata
     id="metadata29">
    <rdf:RDF>
      <cc:Work
         rdf:about="">
        <dc:format>image/svg+xml</dc:format>
        <dc:type
           rdf:resource="http://purl.org/dc/dcmitype/StillImage" />
      </cc:Work>
    </rdf:RDF>
  </metadata>
  <sodipodi:namedview
     inkscape:window-height="706"
     inkscape:window-width="640"
     inkscape:pageshadow="2"
     inkscape:pageopacity="0.0"
     guidetolerance="10.0"
     gridtolerance="10.0"
     objecttolerance="10.0"
     borderopacity="1.0"
     bordercolor="#666666"
     pagecolor="#ffffff"
     id="base"
     showgrid="false"
     inkscape:zoom="14.672466"
     inkscape:cx="12"
     inkscape:cy="12"
     inkscape:window-x="1"
     inkscape:window-y="46"
     inkscape:current-layer="svg3275" />
  <defs
     id="defs3277">
    <inkscape:perspective
       sodipodi:type="inkscape:persp3d"
       inkscape:vp_x="0 : 12 : 1"
       inkscape:vp_y="0 : 1000 : 0"
       inkscape:vp_z="24 : 12 : 1"
       inkscape:persp3d-origin="12 : 8 : 1"
       id="perspective31" />
    <linearGradient
       id="linearGradient8838">
      <stop
         id="stop8840"
         style="stop-color:#000000;stop-opacity:1"
         offset="0" />
      <stop
         id="stop8842"
         style="stop-color:#000000;stop-opacity:0"
         offset="1" />
    </linearGradient>
    <radialGradient
       cx="62.625"
       cy="4.625"
       r="10.625"
       fx="62.625"
       fy="4.625"
       id="radialGradient2501"
       xlink:href="#linearGradient8838"
       gradientUnits="userSpaceOnUse"
       gradientTransform="matrix(1.1294118,0,0,0.2823525,-58.729414,19.694118)" />
    <linearGradient
       id="linearGradient2490-182-124">
      <stop
         id="stop2788"
         style="stop-color:#1f4b6a;stop-opacity:1"
         offset="0" />
      <stop
         id="stop2790"
         style="stop-color:#4083c2;stop-opacity:1"
         offset="1" />
    </linearGradient>
    <linearGradient
       x1="18.379412"
       y1="44.980297"
       x2="18.379412"
       y2="3.0816143"
       id="linearGradient2498"
       xlink:href="#linearGradient2490-182-124"
       gradientUnits="userSpaceOnUse"
       gradientTransform="matrix(0.5160413,0,0,0.5160413,-0.384991,-0.3849911)" />
    <linearGradient
       id="linearGradient3242-187-536">
      <stop
         id="stop2778"
         style="stop-color:#8badea;stop-opacity:1"
         offset="0" />
      <stop
         id="stop2780"
         style="stop-color:#6396cd;stop-opacity:1"
         offset="0.26238" />
      <stop
         id="stop2782"
         style="stop-color:#3b7caf;stop-opacity:1"
         offset="0.66093999" />
      <stop
         id="stop2784"
         style="stop-color:#194c70;stop-opacity:1"
         offset="1" />
    </linearGradient>
    <radialGradient
       cx="23.895569"
       cy="3.9900031"
       r="20.397499"
       fx="23.895569"
       fy="3.9900031"
       id="radialGradient2496"
       xlink:href="#linearGradient3242-187-536"
       gradientUnits="userSpaceOnUse"
       gradientTransform="matrix(0,1.2316137,-1.6257082,0,18.486581,-28.720783)" />
    <linearGradient
       id="linearGradient4873">
      <stop
         id="stop4875"
         style="stop-color:#ffffff;stop-opacity:1"
         offset="0" />
      <stop
         id="stop4877"
         style="stop-color:#ffffff;stop-opacity:0"
         offset="1" />
    </linearGradient>
    <linearGradient
       x1="63.397362"
       y1="-12.489107"
       x2="63.397362"
       y2="5.4675598"
       id="linearGradient2493"
       xlink:href="#linearGradient4873"
       gradientUnits="userSpaceOnUse"
       gradientTransform="matrix(1.0862728,0,0,1.0862481,-55.56661,15.813638)" />
    <linearGradient
       inkscape:collect="always"
       xlink:href="#linearGradient4873"
       id="linearGradient2407"
       gradientUnits="userSpaceOnUse"
       gradientTransform="matrix(1.0862728,0,0,1.0862481,-55.56661,15.813638)"
       x1="63.397362"
       y1="-12.489107"
       x2="63.397362"
       y2="5.4675598" />
    <radialGradient
       inkscape:collect="always"
       xlink:href="#linearGradient3242-187-536"
       id="radialGradient2410"
       gradientUnits="userSpaceOnUse"
       gradientTransform="matrix(0,1.2316137,-1.6257082,0,18.486581,-28.720783)"
       cx="23.895569"
       cy="3.9900031"
       fx="23.895569"
       fy="3.9900031"
       r="20.397499" />
    <linearGradient
       inkscape:collect="always"
       xlink:href="#linearGradient2490-182-124"
       id="linearGradient2412"
       gradientUnits="userSpaceOnUse"
       gradientTransform="matrix(0.5160413,0,0,0.5160413,-0.384991,-0.3849911)"
       x1="18.379412"
       y1="44.980297"
       x2="18.379412"
       y2="3.0816143" />
    <radialGradient
       inkscape:collect="always"
       xlink:href="#linearGradient8838"
       id="radialGradient2415"
       gradientUnits="userSpaceOnUse"
       gradientTransform="matrix(1.1294118,0,0,0.2823525,-58.729414,19.694118)"
       cx="62.625"
       cy="4.625"
       fx="62.625"
       fy="4.625"
       r="10.625" />
  </defs>
  <path
     style="opacity:0.3;fill:url(#radialGradient2415);fill-opacity:1;fill-rule:evenodd;stroke:none;stroke-width:0.99999988;stroke-linecap:butt;stroke-linejoin:round;marker:none;marker-start:none;marker-mid:none;marker-end:none;stroke-miterlimit:4;stroke-dasharray:none;stroke-dashoffset:0;stroke-opacity:1;visibility:visible;display:inline;overflow:visible"
     id="path8836"
     d="M 24,21 C 24,22.656854 18.627417,24 12,24 C 5.3725828,24 -2.5e-07,22.656854 -2.5e-07,21 C -2.5e-07,19.343146 5.3725828,18 12,18 C 18.627417,18 24,19.343146 24,21 L 24,21 z" />
  <path
     style="fill:url(#radialGradient2410);fill-opacity:1;stroke:url(#linearGradient2412);stroke-width:1.00365424;stroke-linecap:round;stroke-linejoin:round;stroke-miterlimit:4;stroke-dasharray:none;stroke-dashoffset:0;stroke-opacity:1"
     id="path2555"
     d="M 12.000002,1.501785 C 6.207449,1.501785 1.501785,6.2074466 1.501785,11.999999 C 1.501785,17.792553 6.207449,22.498218 12.000002,22.498215 C 17.792552,22.498215 22.498221,17.792553 22.498215,11.999999 C 22.498215,6.2074466 17.792552,1.501785 12.000002,1.501785 z" />
  <path
     style="opacity:0.4;fill:none;fill-opacity:1;fill-rule:nonzero;stroke:url(#linearGradient2407);stroke-width:0.99999994;stroke-miterlimit:4;stroke-dasharray:none;stroke-opacity:1"
     id="path2463"
     d="M 21.499999,11.999663 C 21.499999,17.246537 17.24639,21.499999 12.00012,21.499999 C 6.7533674,21.499999 2.4999999,17.24649 2.4999999,11.999663 C 2.4999999,6.7530318 6.7533674,2.5000007 12.00012,2.5000007 C 17.24639,2.5000007 21.499999,6.7530318 21.499999,11.999663 L 21.499999,11.999663 z" />
  <path
     style="opacity:1;fill:#1f4b6a;fill-opacity:1;stroke:none;color:#000000;fill-rule:nonzero;stroke-width:1;stroke-linecap:butt;stroke-linejoin:miter;marker:none;marker-start:none;marker-mid:none;marker-end:none;stroke-miterlimit:4;stroke-dasharray:none;stroke-dashoffset:0;stroke-opacity:1;visibility:visible;display:inline;overflow:visible;enable-background:accumulate"
     id="path2503"
     d="M 13.623388,6.4886026 C 13.623388,7.3103106 12.928967,7.9772046 12.07334,7.9772046 C 11.217714,7.9772046 10.523291,7.3103106 10.523291,6.4886026 C 10.523291,5.6668946 11.217714,5.0000006 12.07334,5.0000006 C 12.928967,5.0000006 13.623388,5.6668946 13.623388,6.4886026 z M 17.492094,8.0714696 C 17.420401,8.0826256 17.352658,8.1097806 17.294598,8.1506876 L 11.999839,8.9436206 L 6.7335957,8.1397526 C 6.5974637,8.0449306 6.4060677,8.0165356 6.2539567,8.0869346 C 6.1018427,8.1573316 6.0021227,8.3241866 6.0000257,8.4829606 C 5.9981057,8.6417566 6.1037347,8.7787006 6.2539567,8.8525906 L 10.380571,10.109775 L 10.352347,12.995849 L 8.8962307,17.318256 C 8.7559887,17.515081 8.7987327,17.767859 9.0090887,17.899077 C 9.2194537,18.030315 9.5177697,17.990329 9.6580257,17.793482 L 12.007903,13.127865 L 14.313423,17.785419 C 14.438089,17.989569 14.715985,18.060486 14.934141,17.943833 C 15.152296,17.827182 15.228088,17.567143 15.103427,17.362991 L 13.674341,13.021988 L 13.617921,10.304945 L 17.802438,8.8371266 C 17.971509,8.7261816 18.044959,8.5161456 17.97173,8.3355006 C 17.898495,8.1548366 17.697242,8.0495786 17.492079,8.0714696 L 17.492094,8.0714696 z" />
  <path
     style="fill:#ffffff;fill-opacity:1;stroke:none"
     id="path6668"
     d="M 13.623388,7.4886023 C 13.623388,8.3103103 12.928967,8.9772043 12.07334,8.9772043 C 11.217714,8.9772043 10.523291,8.3103103 10.523291,7.4886023 C 10.523291,6.6668943 11.217714,6.0000003 12.07334,6.0000003 C 12.928967,6.0000003 13.623388,6.6668943 13.623388,7.4886023 z M 17.492094,9.0714693 C 17.420401,9.0826253 17.352658,9.1097803 17.294598,9.1506873 L 11.999839,9.9436203 L 6.7335957,9.1397523 C 6.5974637,9.0449303 6.4060677,9.0165353 6.2539567,9.0869343 C 6.1018427,9.1573313 6.0021227,9.3241863 6.0000257,9.4829603 C 5.9981057,9.6417563 6.1037347,9.7787003 6.2539567,9.8525903 L 10.380571,11.109775 L 10.352347,13.995849 L 8.8962307,18.318256 C 8.7559887,18.515081 8.7987327,18.767859 9.0090887,18.899077 C 9.2194537,19.030315 9.5177697,18.990329 9.6580257,18.793482 L 12.007903,14.127865 L 14.313423,18.785419 C 14.438089,18.989569 14.715985,19.060486 14.934141,18.943833 C 15.152296,18.827182 15.228088,18.567143 15.103427,18.362991 L 13.674341,14.021988 L 13.617921,11.304945 L 17.802438,9.8371263 C 17.971509,9.7261813 18.044959,9.5161453 17.97173,9.3355003 C 17.898495,9.1548363 17.697242,9.0495783 17.492079,9.0714693 L 17.492094,9.0714693 z" />
</svg>

<?xml version="1.0" encoding="UTF-8" standalone="no"?>
<!-- Created with Inkscape (http://www.inkscape.org/) -->
<svg id="svg3275" xmlns:rdf="http://www.w3.org/1999/02/22-rdf-syntax-ns#" xmlns="http://www.w3.org/2000/svg" height="24" width="24" version="1.0" xmlns:cc="http://creativecommons.org/ns#" xmlns:xlink="http://www.w3.org/1999/xlink" xmlns:dc="http://purl.org/dc/elements/1.1/">
 <metadata id="metadata29">
  <rdf:RDF>
   <cc:Work rdf:about="">
    <dc:format>image/svg+xml</dc:format>
    <dc:type rdf:resource="http://purl.org/dc/dcmitype/StillImage"/>
   </cc:Work>
  </rdf:RDF>
 </metadata>
 <defs id="defs3277">
  <linearGradient id="linearGradient2407" y2="5.4676" gradientUnits="userSpaceOnUse" x2="63.397" gradientTransform="matrix(1.0863 0 0 1.0862 -55.567 15.814)" y1="-12.489" x1="63.397">
   <stop id="stop4875" style="stop-color:#fff" offset="0"/>
   <stop id="stop4877" style="stop-color:#fff;stop-opacity:0" offset="1"/>
  </linearGradient>
  <radialGradient id="radialGradient2410" gradientUnits="userSpaceOnUse" cy="3.99" cx="23.896" gradientTransform="matrix(0 1.2316 -1.6257 0 18.487 -28.721)" r="20.397">
   <stop id="stop2778" style="stop-color:#8badea" offset="0"/>
   <stop id="stop2780" style="stop-color:#6396cd" offset=".26238"/>
   <stop id="stop2782" style="stop-color:#3b7caf" offset=".66094"/>
   <stop id="stop2784" style="stop-color:#194c70" offset="1"/>
  </radialGradient>
  <linearGradient id="linearGradient2412" y2="3.0816" gradientUnits="userSpaceOnUse" x2="18.379" gradientTransform="matrix(.51604 0 0 .51604 -.38499 -.38499)" y1="44.98" x1="18.379">
   <stop id="stop2788" style="stop-color:#1f4b6a" offset="0"/>
   <stop id="stop2790" style="stop-color:#4083c2" offset="1"/>
  </linearGradient>
  <radialGradient id="radialGradient2415" gradientUnits="userSpaceOnUse" cy="4.625" cx="62.625" gradientTransform="matrix(1.1294 0 0 .28235 -58.729 19.694)" r="10.625">
   <stop id="stop8840" offset="0"/>
   <stop id="stop8842" style="stop-opacity:0" offset="1"/>
  </radialGradient>
 </defs>
 <path id="path8836" style="opacity:.3;fill-rule:evenodd;fill:url(#radialGradient2415)" d="m24 21c0 1.657-5.373 3-12 3-6.6274 0-12-1.343-12-3-2.5e-7 -1.657 5.3726-3 12-3 6.627 0 12 1.343 12 3z"/>
 <path id="path2555" style="stroke-linejoin:round;stroke:url(#linearGradient2412);stroke-linecap:round;stroke-width:1.0037;fill:url(#radialGradient2410)" d="m12 1.5018c-5.7926 0-10.498 4.7056-10.498 10.498-0.0002 5.793 4.7054 10.498 10.498 10.498 5.793 0 10.498-4.705 10.498-10.498 0-5.7926-4.705-10.498-10.498-10.498z"/>
 <path id="path2463" style="opacity:.4;stroke:url(#linearGradient2407);fill:none" d="m21.5 12c0 5.247-4.254 9.5-9.5 9.5-5.2466 0-9.5-4.254-9.5-9.5 0-5.247 4.2534-9.5 9.5-9.5 5.246 0 9.5 4.253 9.5 9.5z"/>
 <path id="path2503" style="color:#000000;fill:#1f4b6a" d="m13.623 6.4886c0 0.8217-0.694 1.4886-1.55 1.4886-0.855 0-1.55-0.6669-1.55-1.4886s0.695-1.4886 1.55-1.4886c0.856 0 1.55 0.6669 1.55 1.4886zm3.869 1.5829c-0.072 0.0111-0.139 0.0383-0.197 0.0792l-5.295 0.7929-5.2664-0.8038c-0.1361-0.0949-0.3275-0.1233-0.4796-0.0529-0.1522 0.0704-0.2519 0.2373-0.254 0.3961-0.0019 0.1588 0.1037 0.2957 0.254 0.3696l4.127 1.2574-0.029 2.886-1.4558 4.322c-0.1402 0.197-0.0975 0.45 0.1129 0.581s0.5087 0.091 0.6489-0.106l2.35-4.665 2.305 4.657c0.125 0.205 0.403 0.275 0.621 0.159 0.218-0.117 0.294-0.377 0.169-0.581l-1.429-4.341-0.056-2.717 4.184-1.4679c0.17-0.1109 0.243-0.321 0.17-0.5016-0.074-0.1807-0.275-0.2859-0.48-0.264z"/>
 <path id="path6668" style="fill:#fff" d="m13.623 7.4886c0 0.8217-0.694 1.4886-1.55 1.4886-0.855 0-1.55-0.6669-1.55-1.4886s0.695-1.4886 1.55-1.4886c0.856 0 1.55 0.6669 1.55 1.4886zm3.869 1.5829c-0.072 0.0111-0.139 0.0383-0.197 0.0792l-5.295 0.7929-5.2664-0.8038c-0.1361-0.0949-0.3275-0.1233-0.4796-0.0529-0.1522 0.0704-0.2519 0.2373-0.254 0.3961-0.0019 0.1588 0.1037 0.2957 0.254 0.3696l4.127 1.2574-0.029 2.886-1.4558 4.322c-0.1402 0.197-0.0975 0.45 0.1129 0.581s0.5087 0.091 0.6489-0.106l2.35-4.665 2.305 4.657c0.125 0.205 0.403 0.275 0.621 0.159 0.218-0.117 0.294-0.377 0.169-0.581l-1.429-4.341-0.056-2.717 4.184-1.4679c0.17-0.1109 0.243-0.321 0.17-0.5016-0.074-0.1807-0.275-0.2859-0.48-0.264z"/>
</svg>
